Shadows Icons Themes/Shadows-Light-Icons/apps/48/utilities-terminal.svg

<?xml version="1.0" encoding="UTF-8" standalone="no"?>
<svg
   width="48"
   height="48"
   version="1.1"
   id="svg29"
   sodipodi:docname="utilities-terminal.svg"
   inkscape:version="1.1.2 (0a00cf5339, 2022-02-04)"
   xmlns:inkscape="http://www.inkscape.org/namespaces/inkscape"
   xmlns:sodipodi="http://sodipodi.sourceforge.net/DTD/sodipodi-0.dtd"
   xmlns:xlink="http://www.w3.org/1999/xlink"
   xmlns="http://www.w3.org/2000/svg"
   xmlns:svg="http://www.w3.org/2000/svg">
  <sodipodi:namedview
     id="namedview31"
     pagecolor="#ffffff"
     bordercolor="#666666"
     borderopacity="1.0"
     inkscape:pageshadow="2"
     inkscape:pageopacity="0.0"
     inkscape:pagecheckerboard="0"
     showgrid="false"
     inkscape:zoom="4.5814627"
     inkscape:cx="-38.63395"
     inkscape:cy="-8.949107"
     inkscape:window-width="1920"
     inkscape:window-height="1006"
     inkscape:window-x="0"
     inkscape:window-y="0"
     inkscape:window-maximized="1"
     inkscape:current-layer="svg29" />
  <defs
     id="defs17">
    <linearGradient
       id="a"
       y1="547.634"
       y2="499.679"
       x2="388.865"
       gradientUnits="userSpaceOnUse"
       gradientTransform="translate(-384.57,-499.8)"
       x1="428.816">
      <stop
         stop-color="#2a2c2f"
         id="stop2" />
      <stop
         offset="1"
         stop-color="#536161"
         id="stop4" />
    </linearGradient>
    <linearGradient
       id="b"
       y1="44"
       y2="12"
       x2="14"
       gradientUnits="userSpaceOnUse"
       x1="36">
      <stop
         stop-color="#536161"
         style="stop-color:#bfc9c9;stop-opacity:1"
         id="stop7" />
      <stop
         offset="1"
         stop-color="#f4f5f5"
         style="stop-color:#fbfbfb;stop-opacity:1"
         id="stop9" />
    </linearGradient>
    <linearGradient
       id="c"
       y1="527.014"
       x1="406.501"
       y2="539.825"
       x2="419.974"
       gradientUnits="userSpaceOnUse"
       gradientTransform="translate(-384.57,-499.8)">
      <stop
         stop-color="#292c2f"
         id="stop12" />
      <stop
         offset="1"
         stop-opacity="0"
         id="stop14" />
    </linearGradient>
    <linearGradient
       id="a-9"
       y1="547.63354"
       y2="499.67896"
       x2="388.86475"
       gradientUnits="userSpaceOnUse"
       gradientTransform="matrix(0.99999892,0,0,0.99999892,-384.56957,-499.79937)"
       x1="428.81628">
      <stop
         stop-color="#2a2c2f"
         id="stop7-5" />
      <stop
         offset="1"
         stop-color="#536161"
         id="stop9-0" />
    </linearGradient>
    <linearGradient
       gradientTransform="matrix(0.99999892,0,0,0.99999892,-1.004e-5,2.8739374e-5)"
       id="b-4"
       y1="43.722721"
       y2="7.3077364"
       x2="9.343915"
       gradientUnits="userSpaceOnUse"
       x1="31.819818">
      <stop
         stop-color="#536161"
         id="stop12-8"
         style="stop-color:#dce1e1;stop-opacity:1" />
      <stop
         offset="1"
         stop-color="#f4f5f5"
         id="stop14-7"
         style="stop-color:#fbfbfb;stop-opacity:1" />
    </linearGradient>
    <linearGradient
       gradientTransform="matrix(0.99999892,0,0,0.99999892,-1.004e-5,2.8739374e-5)"
       inkscape:collect="always"
       xlink:href="#linearGradient4175"
       id="linearGradient4181"
       x1="28.407476"
       y1="26.079958"
       x2="17.319328"
       y2="15.301996"
       gradientUnits="userSpaceOnUse" />
    <linearGradient
       inkscape:collect="always"
       id="linearGradient4175">
      <stop
         style="stop-color:#33383a;stop-opacity:1;"
         offset="0"
         id="stop4177" />
      <stop
         style="stop-color:#485052;stop-opacity:1"
         offset="1"
         id="stop4179" />
    </linearGradient>
    <linearGradient
       id="c-1"
       y1="527.01447"
       x1="406.50085"
       y2="539.82538"
       x2="419.97357"
       gradientUnits="userSpaceOnUse"
       gradientTransform="matrix(0.99999892,0,0,0.99999892,-384.56957,-499.79937)">
      <stop
         stop-color="#292c2f"
         id="stop17" />
      <stop
         offset="1"
         stop-opacity="0"
         id="stop19" />
    </linearGradient>
  </defs>
  <rect
     style="fill:url(#a-9);stroke-width:1.42857"
     id="rect23"
     height="39.999958"
     rx="2.8571219"
     y="4"
     x="4.0000005"
     width="39.999958"
     ry="2.8571658" />
  <path
     inkscape:connector-curvature="0"
     style="fill:url(#b-4);stroke:url(#linearGradient4181);stroke-width:0.2;stroke-miterlimit:4;stroke-dasharray:none;stroke-opacity:1"
     id="path27-7"
     d="m 20.413971,14.000019 -1.413999,1.413999 8.585992,8.585995 -8.585992,8.585995 1.413999,1.413999 9.999989,-9.999994 -1.413999,-1.413999 z" />
  <path
     d="m 20.419971,34.000007 9.58599,9.585994 H 44.005946 V 37.586004 L 30.41996,24.000013 Z"
     id="path31"
     style="opacity:0.4;fill:url(#c-1);fill-rule:evenodd;stroke-width:1.42857"
     inkscape:connector-curvature="0" />
  <path
     d="M 6.857141,4.0000258 C 5.428571,4.0000258 4,5.4285958 4,6.8571668 h 1.6e-5 39.999943 1.6e-5 c 0,-1.428571 -1.428571,-2.857141 -2.857141,-2.857141 z"
     id="path23-2"
     inkscape:connector-curvature="0"
     style="opacity:0.3;fill:#ffffff;fill-opacity:1;stroke-width:0.944912"
     sodipodi:nodetypes="ccccccc" />
  <path
     d="m 41.142834,44 c 1.42857,0 2.857141,-1.42857 2.857141,-2.857141 v 0 H 4 v 0 C 4,42.57143 5.428571,44 6.857141,44 Z"
     id="path23-5"
     inkscape:connector-curvature="0"
     style="opacity:0.3;fill:#000000;fill-opacity:1;stroke-width:0.944912"
     sodipodi:nodetypes="ccccccc" />
</svg>

<?xml version="1.0" encoding="UTF-8" standalone="no"?>
<svg xmlns="http://www.w3.org/2000/svg" width="48" height="48" version="1.1">
 <defs>
  <linearGradient id="a" y1="547.634" y2="499.679" x2="388.865" gradientUnits="userSpaceOnUse" gradientTransform="translate(-384.57,-499.8)" x1="428.816">
   <stop stop-color="#2a2c2f"/>
   <stop offset="1" stop-color="#536161"/>
  </linearGradient>
  <linearGradient id="b" y1="44" y2="12" x2="14" gradientUnits="userSpaceOnUse" x1="36">
   <stop stop-color="#536161" style="stop-color:#bfc9c9;stop-opacity:1"/>
   <stop offset="1" stop-color="#f4f5f5" style="stop-color:#fbfbfb;stop-opacity:1"/>
  </linearGradient>
  <linearGradient id="c" y1="527.014" x1="406.501" y2="539.825" x2="419.974" gradientUnits="userSpaceOnUse" gradientTransform="translate(-384.57,-499.8)">
   <stop stop-color="#292c2f"/>
   <stop offset="1" stop-opacity="0"/>
  </linearGradient>
 </defs>
 <rect style="fill:url(#a)" height="40" rx="1" y="4" x="4" width="40" ry="1"/>
 <path style="fill:#000000;fill-opacity:1;opacity:0.3" d="M 4 42 L 4 43 C 4 43.554007 4.4459958 44 5 44 L 43 44 C 43.554004 44 44 43.554007 44 43 L 44 42 C 44 42.554007 43.554004 43 43 43 L 5 43 C 4.4459958 43 4 42.554007 4 42 z"/>
 <path style="fill:url(#b);stroke:none;stroke-opacity:1;stroke-width:0.2;stroke-miterlimit:4;stroke-dasharray:none" d="M 20.414,14 19,15.414 27.586,24 19,32.586 20.414,34 30.414,24 29,22.586 Z"/>
 <path d="m 20.42,34 9.586,9.586 14,0 0,-6 L 30.42,24 Z" style="opacity:0.4;fill:url(#c);fill-rule:evenodd"/>
 <path d="M 4,6 4,5 C 4,4.445993 4.445996,4 5,4 l 38,0 c 0.554004,0 1,0.445993 1,1 l 0,1 C 44,5.445993 43.554004,5 43,5 L 5,5 C 4.445996,5 4,5.445993 4,6 Z" style="opacity:0.3;fill:#ffffff;fill-opacity:1"/>
</svg>
